X:1
T: At The Fair
C:
R:Reel
I:speed 232
Q:232
K:C
M:4/4
L:1/8
c2e2 g2e2|c2e2 B2d2|c2e2 g2e2|f2d2 B2d2|c2e2 g2e2|c2e2 B2d2|c2e2 g2e2|f2d2 B2d2|
c2e2 B2e2|A2c2 G2A2|F2G2 E2G2|d2A2 B2d2|c2e2 B2e2|A2c2 G2A2|F2G2 E2G2|A2B2 c4|
c2ec g2ec|c2ec Bc de|c2ec g2fe|fe dc Bc de|c2ec g2ec|c2ec Bc de|c2ec g2fe|fe dc Bc de|
c2ec B2eB|A2cA G2AG|F2GF EG ce|dA Bc ed BG|c2ec B2eB|A2cA G2AG|F2GF EG ce|Ad BG c4||
